X: 1231
T: MAHON WALTZ
B: Oliver Ditson "The Boston Collection of Instrumental Music" 1910 p.123 #1
F: http://conquest.imslp.info/files/imglnks/usimg/8/8f/IMSLP175643-PMLP309456-bostoncollection00bost_bw.pdf
%: 2012 John Chambers <jc:trillian.mit.edu>
M: 3/8
L: 1/16
K: G
D>G |\
B2 G>DG>B | d>B g3B | d>cA>ed>^c | d>BG2 D>G |\
B2 G>DG>B | d>B g3B | d>cA>ed>F | G4 H:|
|: B2 |\
c>B^A>Bc>B | e2 z2 e2 | f2f2fg | e2 z2 A2 |\
{c}B>A^G>AB>A | d2 z2 df | e2e2e2 | d4 D>G |
B2 G>DG>B | d>B g3B | d>cA>ed>^c | d>BG2 D>G |\
B2 G>DG>B | d>B g3B | d>cA>ed>F | G4 :|
K: C
G/GG/ |\
e4d2 | c3Gce | (gfdG).A.B | ceg2 G/GG/ |\
e4d2 | c3cde | f3edB | c4 "^D.C.":|

%%sep 1 1 500
%%sep 1 1 500
